images/icons8-news.svg

<svg height="64" viewBox="0 0 64 64" width="64" xmlns="http://www.w3.org/2000/svg"><path d="m7 4c-1.652344 0-3 1.347656-3 3v46c0 3.859375 3.140625 7 7 7h44c3.859375 0 7-3.140625 7-7v-25c0-2.207031-1.792969-4-4-4h-8v-17c0-1.652344-1.347656-3-3-3zm0 2h40c.550781 0 1 .449219 1 1v46c0 1.996094.753906 3.75 2.007812 5h-39.007812c-2.757812 0-5-2.242188-5-5v-3h31c.554688 0 1-.445312 1-1s-.445312-1-1-1h-31v-41c0-.550781.449219-1 1-1zm6 6c-.554688 0-1 .445312-1 1s.445312 1 1 1h16c.554688 0 1-.445312 1-1s-.445312-1-1-1zm20 0c-.554688 0-1 .445312-1 1s.445312 1 1 1h6c.554688 0 1-.445312 1-1s-.445312-1-1-1zm-20 4c-.554688 0-1 .445312-1 1s.445312 1 1 1h10c.554688 0 1-.445312 1-1s-.445312-1-1-1zm14 0c-.554688 0-1 .445312-1 1s.445312 1 1 1h12c.554688 0 1-.445312 1-1s-.445312-1-1-1zm-14 8c-.554688 0-1 .445312-1 1s.445312 1 1 1h10c.554688 0 1-.445312 1-1s-.445312-1-1-1zm16 0c-.554688 0-1 .445312-1 1s.445312 1 1 1h10c.554688 0 1-.445312 1-1s-.445312-1-1-1zm21 2h4.558594c-.347656.589844-.558594 1.269531-.558594 2v17c0 .554688.445312 1 1 1s1-.445312 1-1v-17c0-1.101562.898438-2 2-2s2 .898438 2 2v25c0 2.757812-2.242188 5-5 5-2.898438 0-5-2.101562-5-5zm-37 2c-.554688 0-1 .445312-1 1s.445312 1 1 1h10c.554688 0 1-.445312 1-1s-.445312-1-1-1zm16 0c-.554688 0-1 .445312-1 1s.445312 1 1 1h10c.554688 0 1-.445312 1-1s-.445312-1-1-1zm-16 4c-.554688 0-1 .445312-1 1s.445312 1 1 1h10c.554688 0 1-.445312 1-1s-.445312-1-1-1zm16 0c-.554688 0-1 .445312-1 1s.445312 1 1 1h10c.554688 0 1-.445312 1-1s-.445312-1-1-1zm-16 4c-.554688 0-1 .445312-1 1s.445312 1 1 1h10c.554688 0 1-.445312 1-1s-.445312-1-1-1zm16 0c-.554688 0-1 .445312-1 1s.445312 1 1 1h10c.554688 0 1-.445312 1-1s-.445312-1-1-1zm-16 4c-.554688 0-1 .445312-1 1s.445312 1 1 1h10c.554688 0 1-.445312 1-1s-.445312-1-1-1zm28 8c-.554688 0-1 .445312-1 1s.445312 1 1 1h4c.554688 0 1-.445312 1-1s-.445312-1-1-1zm-31 4c-.554688 0-1 .445312-1 1v2c0 .554688.445312 1 1 1s1-.445312 1-1v-2c0-.554688-.445312-1-1-1zm5 0c-.554688 0-1 .445312-1 1v2c0 .554688.445312 1 1 1s1-.445312 1-1v-2c0-.554688-.445312-1-1-1zm5 0c-.554688 0-1 .445312-1 1v2c0 .554688.445312 1 1 1s1-.445312 1-1v-2c0-.554688-.445312-1-1-1zm5 0c-.554688 0-1 .445312-1 1v2c0 .554688.445312 1 1 1s1-.445312 1-1v-2c0-.554688-.445312-1-1-1zm5 0c-.554688 0-1 .445312-1 1v2c0 .554688.445312 1 1 1s1-.445312 1-1v-2c0-.554688-.445312-1-1-1zm5 0c-.554688 0-1 .445312-1 1v2c0 .554688.445312 1 1 1s1-.445312 1-1v-2c0-.554688-.445312-1-1-1zm5 0c-.554688 0-1 .445312-1 1v2c0 .554688.445312 1 1 1s1-.445312 1-1v-2c0-.554688-.445312-1-1-1zm5 0c-.554688 0-1 .445312-1 1v2c0 .554688.445312 1 1 1s1-.445312 1-1v-2c0-.554688-.445312-1-1-1zm0 0" fill="#044e54"/></svg>

<?xml version="1.0" encoding="UTF-8"?>
<svg xmlns="http://www.w3.org/2000/svg" xmlns:xlink="http://www.w3.org/1999/xlink" viewBox="0 0 64 64" width="64px" height="64px">
<g id="surface17030458">
<path style=" stroke:none;fill-rule:nonzero;fill:rgb(1.568628%,30.588236%,32.941177%);fill-opacity:1;" d="M 7 4 C 5.347656 4 4 5.347656 4 7 L 4 53 C 4 56.859375 7.140625 60 11 60 L 55 60 C 58.859375 60 62 56.859375 62 53 L 62 28 C 62 25.792969 60.207031 24 58 24 L 50 24 L 50 7 C 50 5.347656 48.652344 4 47 4 Z M 7 6 L 47 6 C 47.550781 6 48 6.449219 48 7 L 48 53 C 48 54.996094 48.753906 56.75 50.007812 58 L 11 58 C 8.242188 58 6 55.757812 6 53 L 6 50 L 37 50 C 37.554688 50 38 49.554688 38 49 C 38 48.445312 37.554688 48 37 48 L 6 48 L 6 7 C 6 6.449219 6.449219 6 7 6 Z M 13 12 C 12.445312 12 12 12.445312 12 13 C 12 13.554688 12.445312 14 13 14 L 29 14 C 29.554688 14 30 13.554688 30 13 C 30 12.445312 29.554688 12 29 12 Z M 33 12 C 32.445312 12 32 12.445312 32 13 C 32 13.554688 32.445312 14 33 14 L 39 14 C 39.554688 14 40 13.554688 40 13 C 40 12.445312 39.554688 12 39 12 Z M 13 16 C 12.445312 16 12 16.445312 12 17 C 12 17.554688 12.445312 18 13 18 L 23 18 C 23.554688 18 24 17.554688 24 17 C 24 16.445312 23.554688 16 23 16 Z M 27 16 C 26.445312 16 26 16.445312 26 17 C 26 17.554688 26.445312 18 27 18 L 39 18 C 39.554688 18 40 17.554688 40 17 C 40 16.445312 39.554688 16 39 16 Z M 13 24 C 12.445312 24 12 24.445312 12 25 C 12 25.554688 12.445312 26 13 26 L 23 26 C 23.554688 26 24 25.554688 24 25 C 24 24.445312 23.554688 24 23 24 Z M 29 24 C 28.445312 24 28 24.445312 28 25 C 28 25.554688 28.445312 26 29 26 L 39 26 C 39.554688 26 40 25.554688 40 25 C 40 24.445312 39.554688 24 39 24 Z M 50 26 L 54.558594 26 C 54.210938 26.589844 54 27.269531 54 28 L 54 45 C 54 45.554688 54.445312 46 55 46 C 55.554688 46 56 45.554688 56 45 L 56 28 C 56 26.898438 56.898438 26 58 26 C 59.101562 26 60 26.898438 60 28 L 60 53 C 60 55.757812 57.757812 58 55 58 C 52.101562 58 50 55.898438 50 53 Z M 13 28 C 12.445312 28 12 28.445312 12 29 C 12 29.554688 12.445312 30 13 30 L 23 30 C 23.554688 30 24 29.554688 24 29 C 24 28.445312 23.554688 28 23 28 Z M 29 28 C 28.445312 28 28 28.445312 28 29 C 28 29.554688 28.445312 30 29 30 L 39 30 C 39.554688 30 40 29.554688 40 29 C 40 28.445312 39.554688 28 39 28 Z M 13 32 C 12.445312 32 12 32.445312 12 33 C 12 33.554688 12.445312 34 13 34 L 23 34 C 23.554688 34 24 33.554688 24 33 C 24 32.445312 23.554688 32 23 32 Z M 29 32 C 28.445312 32 28 32.445312 28 33 C 28 33.554688 28.445312 34 29 34 L 39 34 C 39.554688 34 40 33.554688 40 33 C 40 32.445312 39.554688 32 39 32 Z M 13 36 C 12.445312 36 12 36.445312 12 37 C 12 37.554688 12.445312 38 13 38 L 23 38 C 23.554688 38 24 37.554688 24 37 C 24 36.445312 23.554688 36 23 36 Z M 29 36 C 28.445312 36 28 36.445312 28 37 C 28 37.554688 28.445312 38 29 38 L 39 38 C 39.554688 38 40 37.554688 40 37 C 40 36.445312 39.554688 36 39 36 Z M 13 40 C 12.445312 40 12 40.445312 12 41 C 12 41.554688 12.445312 42 13 42 L 23 42 C 23.554688 42 24 41.554688 24 41 C 24 40.445312 23.554688 40 23 40 Z M 41 48 C 40.445312 48 40 48.445312 40 49 C 40 49.554688 40.445312 50 41 50 L 45 50 C 45.554688 50 46 49.554688 46 49 C 46 48.445312 45.554688 48 45 48 Z M 10 52 C 9.445312 52 9 52.445312 9 53 L 9 55 C 9 55.554688 9.445312 56 10 56 C 10.554688 56 11 55.554688 11 55 L 11 53 C 11 52.445312 10.554688 52 10 52 Z M 15 52 C 14.445312 52 14 52.445312 14 53 L 14 55 C 14 55.554688 14.445312 56 15 56 C 15.554688 56 16 55.554688 16 55 L 16 53 C 16 52.445312 15.554688 52 15 52 Z M 20 52 C 19.445312 52 19 52.445312 19 53 L 19 55 C 19 55.554688 19.445312 56 20 56 C 20.554688 56 21 55.554688 21 55 L 21 53 C 21 52.445312 20.554688 52 20 52 Z M 25 52 C 24.445312 52 24 52.445312 24 53 L 24 55 C 24 55.554688 24.445312 56 25 56 C 25.554688 56 26 55.554688 26 55 L 26 53 C 26 52.445312 25.554688 52 25 52 Z M 30 52 C 29.445312 52 29 52.445312 29 53 L 29 55 C 29 55.554688 29.445312 56 30 56 C 30.554688 56 31 55.554688 31 55 L 31 53 C 31 52.445312 30.554688 52 30 52 Z M 35 52 C 34.445312 52 34 52.445312 34 53 L 34 55 C 34 55.554688 34.445312 56 35 56 C 35.554688 56 36 55.554688 36 55 L 36 53 C 36 52.445312 35.554688 52 35 52 Z M 40 52 C 39.445312 52 39 52.445312 39 53 L 39 55 C 39 55.554688 39.445312 56 40 56 C 40.554688 56 41 55.554688 41 55 L 41 53 C 41 52.445312 40.554688 52 40 52 Z M 45 52 C 44.445312 52 44 52.445312 44 53 L 44 55 C 44 55.554688 44.445312 56 45 56 C 45.554688 56 46 55.554688 46 55 L 46 53 C 46 52.445312 45.554688 52 45 52 Z M 45 52 "/>
</g>
</svg>
